X:60
M:6/8
L:1/8
K:A
|: geg | aea geg\a2e geg | aed cBA | e3 geg | aea geg | a2e geg | afe dcB | A3 :|

